X:1
T:Sing On
T:John Robson Sweney
T:Sing On
T:Public Domain
T:Public Domain
T:Public Domain
C:John Robson Sweney
Z:Public Domain
%%score ( 1 2 ) ( 3 4 )
L:1/8
M:4/4
K:F
V:1 treble 
V:2 treble 
V:3 bass 
V:4 bass 
V:1
 [Fc]2 | [Fc]3 [FA] [FB]2 [FA]2 | [FA]4 [EG]2 C2 | [CF]3 [CF] [CG]2 [DF]2 | [Ec]6 [Ec]2 | %5
w: 1.~Sing|on, ye joy- ful|pil- grims, Nor|the mo- ments long;|My faith|
w: 2.~Sing|on, ye joy- ful|pil- grims, While|on earth we stay;|Let songs|
w: 3.~Sing|on, ye joy- ful|pil- grims, The|will not be long,|Till in|
 [Ed]3 [Ed] [Fc]2 [Fc]2 | (c3 B) [FA]2 [FA]2 | [EG]3 [Ge] [Ge]2 [Fd]2 | [Ec]6 [Ec]2 | %9
w: is heav’n- ward ris-|ing * With ev-|tune- ful song; Lo!|on the|
w: of home and Je-|sus * Be- guile|fleet- ing day; Sing|on the|
w: our Fa- ther’s king-|dom * We swell|no- bler song; Where|an- gels|
 [Ed]2 [Fc]2 [GB]2 [FA]2 | (c3 B) [FA]2 A2 | A3 E F2 D2 | [^CE]6 [CE]2 | [DF]3 [DF] [DF]2 [DB]2 | %14
w: mount of bless- ing,|The * glor- ious|stand; And look- ing|I see|the prom- ised land.|
w: grand old sto- ry|Of * His re-|love, The ev- er-|That fills|the realms a- bove.|
w: there are wait- ing|To * greet us|shore, We’ll meet be-|Where surg-|es roll no more.|
 [CA]4 [Fc]2 [Fc]2 | [Ec]3 [GB] [FA]2 [EG]2 | F6 z2 ||"^Refrain" A4 G>F G>A | F4 C4 | %19
w: |||||
w: Sing on, O|bliss- ful mu- sic!|With|ery note you raise, My|heart is|
w: |||||
 [Ac]4 [^G=B]>[Ac] [_Bd]>[Ac] | ([Ac]4 [FA]4) | [EG]4 [EG]>[FA] [GB]>[Ec] | %22
w: |||
w: filled with rap- ture, My|soul *|is lost in praise; Sing|
w: |||
 ([FA]2 [Ac]2) [Af]2 [Af]2 | [Ge]3 [Gd] [Gc]2 [F=B]2 | [Ec]6 z2 | (F2 F2) [CG]>[CF] [CG]>[CA] | %26
w: ||||
w: on, * O bliss-|ful mu- sic! With|ev-|ery * note you raise, My|
w: ||||
 [CF]4 C4 | [Ac]4 [^G=B]>[Ac] [_Bd]>[Ac] | ([Ac]4 [FA]4) | [EG]4 [EG]>[FA] [GB]>[Ec] | %30
w: ||||
w: is filled|rap- ture, My soul is|lost *|in praise. * * *|
w: ||||
 ([FA]2 [Ac]2) [Af]2 [Fd]2 | [Fc]3 [Fc] [Ec]2 [CE]2 | [CF]6 |] %33
w: |||
w: |||
w: |||
V:2
 x2 | x8 | x6 C2 | x8 | x8 | x8 | E4 x4 | x8 | x8 | x8 | E4 A2 x2 | A3 E F2 D2 | x8 | x8 | x8 | %15
w: ||think||||ery||||mount, I|o- ver Jor- dan,||||
w: ||here||||each||||deem- ing|last- ing chor- us||||
w: ||time||||a||||on the|yond the riv- er,||||
 x8 | F6 x2 || x8 | x8 | x8 | x8 | x8 | x8 | x8 | x8 | A4 x4 | x4 C4 | x8 | x8 | x8 | x8 | x8 | %32
w: |||||||||||||||||
w: |ev-|||||||||heart|with||||||
w: |||||||||||||||||
 x6 |] %33
w: |
w: |
w: |
V:3
 [F,A,]2 | [F,A,]3 [F,C] [F,D]2 [F,C]2 | [C,C]4 [C,C]2 [E,B,]2 | [F,A,]3 [F,A,] [E,B,]2 [D,=B,]2 | %4
 [C,C]6 C2 | [B,C]3 [B,C] [A,C]2 [A,C]2 | [G,C]4 [F,C]2 [F,C]2 | [G,C]3 [G,C] [G,C]2 [G,,=B,]2 | %8
 [C,C]6 C2 | [B,C]2 [A,C]2 [E,C]2 [F,C]2 | [C,C]4 [F,C]2 A,2 | A,3 E, F,2 D,2 | [A,,A,]6 [A,,A,]2 | %13
 [D,A,]3 [D,A,] [B,,B,]2 [B,,F,]2 | F,4 [F,A,]2 [F,A,]2 | [C,G,]3 [C,C] [C,C]2 [C,B,]2 | %16
 [F,A,]6 z2 || C4 B,>A, B,>C | A,4 A,4 | z8 | z8 | [C,C]4 [C,C]>[C,C] [C,C]>[C,C] | %22
 [F,C]4 [F,C]2 [F,C]2 | [G,C]3 [G,F] [G,E]2 [G,D]2 | (C2 B,2 A,2 G,2) | %25
 [F,C]2 [F,C]2 [F,B,]>[F,A,] [F,B,]>[F,C] | [F,A,]4 [F,A,]4 | [F,C]4 [F,C]>[F,C] [F,C]>[F,C] | %28
 (F4 C4) | [C,C]4 [C,C]>[C,C] [C,C]>[C,C] | [F,C]4 [F,C]2 [B,,B,]2 | %31
 [C,A,]3 [C,A,] [C,G,]2 [C,A,]2 | [F,A,]6 |] %33
V:4
 x2 | x8 | x8 | x8 | x6 C2 | x8 | x8 | x8 | x6 C2 | x8 | x6 A,2 | A,3 E, F,2 D,2 | x8 | x8 | %14
 F,4 x4 | x8 | x8 || x8 | x8 | x8 | x8 | x8 | x8 | x8 | C6 x2 | x8 | x8 | x8 | F,8 | x8 | x8 | x8 | %32
 x6 |] %33

